X: 1
T: the Virginia
T: (the Virginian)
R: reel
S: Fiddle Hell Online 2021-2021-05-31 handout 2021-3-31
Z: 2021 John Chambers <jc:trillian.mit.edu>
N: It's not clear which key is correct for this tune.
N: Note the C# in the key signature, but there's no C note in the tune.
M: 4/4
L: 1/8
K: D
|:\
"G"E(uB{d}BA)  B3(A | BA)dB A(FEF) | "D"DF (3FF(vF A3)(uB | A)FBF A(FEF) |
"G"E(uB{d}BA) vB3(A | BA)dB A(uBde) | "Bm"f3(e de)fe | "A"d(BAF) Bu(E{G}E2) :|
|:\
"D"d(uefe) d3(A | BA)FA dAF(uA | de)fe def(ug | "A"a2)bf a(feg) |
"Bm"f3(d ef)d(uB | "F#m"AF) (3FF(vF A)Bde | "G"(f3e) defe | "A"d(uBAF) B(E{G}E :|
